X:1
T:Title
%%score { 1 | 2 }
L:1/8
Q:1/4=100
M:6/8
K:G
V:1 treble nm="Grand Piano"
V:2 bass 
V:1
 BBB B2 B | c3 .B3 | AAA B2 B | A6 | BBB B2 B | c3 .B3 | AAA B2 A | [B,G]6 | %8
w: Wm.~J.~Kirkpatrick * * * *||||||||
 [Ec][Ec][Ec] [Ec]2 [Ec] | c2 B .B3 | AAA d2 c | [Dc]2 [DB] .[DB]3 | BBB B2 [=Fd] | %13
w: |||||
 [Ed]2 [Ec] .[Ec]3 | B2 G B2 A | A3 .[B,G]3 |] %16
w: |||
V:2
 [G,D][G,D][G,D] [G,D]2 [G,D] | [G,E]3 .[G,D]3 | [D,F,D][D,F,D][D,F,D] [G,D]2 [G,D] | [D,F,D]6 | %4
 [G,D][G,D][G,D] [G,D]2 [G,D] | [G,E]3 .[G,D]3 | [D,F,C][D,F,C][D,F,C] [D,G,D]2 [D,F,C] | %7
 [G,,G,]6 | [C,G,][C,G,][C,G,] [C,G,]2 [C,G,] | [G,E]2 [G,D] .[G,D]3 | %10
 [D,F,D][D,F,D][D,F,D] [D,B,D]2 [D,A,D] | [G,,A,]2 [G,,G,] .[G,,G,]3 | %12
 [G,D][G,D][G,D] [G,D]2 [B,,G,] | [C,G,]2 [C,G,] .[C,G,]3 | [D,G,D]2 [D,G,B,] [D,G,D]2 [D,G,C] | %15
 [D,F,C]3 .[G,,G,]3 |] %16

